X:583
T:Crock of Gold, The
R:reel
C:Vincent Broderick
Z:id:hn-reel-583
M:C|
K:G
B2Bd BAGE|~G3A GEDB,|DEGA BAGA|BddB BA~A2|
B2Bd BAGE|~G3A GED2|g2fg egdB|DEGA BGG2:|
|:ea~a2 bage|a2ba gede|gedB GABd|gedB BAA2|
ea~a2 bage|a2ba gede|g2fg egdB|DEGA BGG2:|
